X:1
T:Proles de caelo
T:Proles de caelo
%%score 1 [ 2 3 4 ]
L:1/8
Q:1/4=120
M:none
K:C
V:1 treble nm="Oboe" snm="Ob."
V:2 treble nm="Alto" snm="A"
V:3 treble-8 nm="Tenor" snm="T"
V:4 bass nm="Bass" snm="B"
V:1
 !stemless!E2 (!stemless!G!stemless!A) !stemless!A2 (!stemless!A!stemless!G) !stemless!A2 !stemless!c2 !stemless!c2 (!stemless!B!stemless!A) | %1
w: Pro- les _ de cae- * lo pro- di- it, _|
w: Do- mum _ et por- * tam et tu- mu- lum,|
 !stemless!c2 !stemless!d2 !stemless!c2 (!stemless!B!stemless!A) !stemless!B2 (!stemless!G!stemless!A)(!stemless!B!stemless!A) !stemless!A2 | %2
w: no- vis u- tens _ pro- di- * gi- * is|
w: Pa- ter Fran- ci- * sce vi- * si- * ta,|
 !stemless!E2 (!stemless!G!stemless!A) !stemless!A2 (!stemless!A!stemless!G)(3(!stemless!E!stemless!D!stemless!E) !stemless!F2 !stemless!E2 !stemless!D2 | %3
w: cae- lum _ cae- cis _ a- * * pe- ru- it,|
w: et E- * vae pro- * lem _ _ mi- se- ram|
 !stemless!G2 !stemless!D2 !stemless!E2 !stemless!G2 (!stemless!F!stemless!E) !stemless!D2 !stemless!E2 !stemless!E2 || %4
w: sic- cis ma- re ve- * sti- gi- is.|
w: a som- no mor- tis _ ex- ci- ta.|
[M:4/4] z8 | z8 | z8 | z8 | z8 | z8 | z8 | z8 | z8 | z8 | z8 | z8 | z8 | z8 | z8 | z8 | z8 | z8 | %22
w: ||||||||||||||||||
w: ||||||||||||||||||
 z8 | z8 | z8 | z8 | z8 | z8 | z8 | z8 | z8 | z8 | z8 | z8 |] %34
w: ||||||||||||
w: ||||||||||||
V:2
 z16 | z16 | z16 | z16 ||[M:4/4] E6 A2 | G3 F A4 | A4 B2 A2- | A2 G2 A4 | z2 c3 B c2- | %9
w: ||||Spo- li-||a- tis _|_ _ Ae-|gyp- * *|
w: |||||||||
 c2 dc BA A2- | A^G G2 A4- | A4 z4 | c4 d4 | c3 A (B4 | A4) (G2 A2) | c2 B3 A A2- | A2 ^G^F A4- | %17
w: * ti- * is _ _|_ _ _ _||trans- it|di- * ves,|_ sed _|pau- * * *|* pe- * ris|
w: ||||||||
 A4 z4 | z4 E4 | A2 G4 F2 | A4 A4 | (A4 G4) | F2 E4 D2- | D2 E4 F2- | FE F2 G2 E2- | ED D4 ^CB, | %26
w: _|nec|rem _ _|_ vel|no- *|men _ _|_ _ per-|* * * * di-||
w: |||||||||
 D4 z4 | G3 F D4- | D4 E2 F2 | G6 E2 | (F4 E4) | D2 E4 A2 | G2 E3 D DC | E8 |] %34
w: dit,|fac- * tus|_ fe- *|lix _|pro _|mi- * *|* se- * * *|ris.|
w: |A- * *||||||men.|
V:3
 z16 | z16 | z16 | z16 ||[M:4/4] A2 c3 d e2- | e2 d2 e2 c2 | A2 d4 d2 | c3 B d2 z2 | D2 A4 AG | %9
w: ||||Spo- * * *|* li- * a-|* * tis|_ _ _|Ae- * gyp- *|
w: |||||||||
 A2 B2 G2 A2 | E4 e3 c | d2 e2 A4- | A4 z4 | e8 | (d2 c2 e4) | E4 G2 A2 | z2 d2 c e2 c | %17
w: |* tis- *|* * is|_|trans-|it _ _|di- ves, _|sed pau- * *|
w: ||||||||
 dc A2 B2 c2 | B3 A A4- | A2 E6 | F2 D4 d2- | d2 d2 B2 c2 | A2 z2 B3 G | A3 G E2 z2 | D4 B4 | %25
w: * * pe- ris _|_ _ _|* nec|rem _ _|_ vel no- *||* * men|per- *|
w: ||||||||
 A2 A4 ^G2 | A4 (Bc d2) | (cB G2) z2 B2 | A2 G2 c3 B | d2 e4 A2 | z2 (c3 A A2) | z G B2 A2 c2 | %32
w: * * di-|dit, fa- * *|ctus _ _ fe-||* * lix|pro _ _|mi- * * *|
w: ||* * * A-|||||
 B3 G A4 | B8 |] %34
w: * se- *|ris.|
w: |men.|
V:4
 z16 | z16 | z16 | z16 ||[M:4/4] A,3 G, A,2 C2 | (B,4 A,4) | F,4 G,2 D,2 | E,4 D,4 | D2 C2 E4- | %9
w: ||||Spo- * * *|li- *|a- * *|* tis|Ae- * *|
w: |||||||||
 E2 D4 C2 | B,4 A,4 | z2 C4 D2 | E4 (D3 C | A,4) (G,2 E,2) | F,4 E,4 | E4 D2 C2 | B,4 A,4 | %17
w: * gyp- ti-|is _|trans- *|* it _|_ di- *|ves, sed|pau- * *|pe- ris|
w: ||||||||
 z4 (3:2:2E,4 B,2 | (3:2:2G,4 F,2 A,2 C2- | C2 B,6 | A,6 D,2- | D,4 E,2 F,2- | F,2 G,6 | %23
w: nec _|rem _ vel _|_ _|no- *|||
w: ||||||
 F,2 G,4 A,2- | A,4 G,4 | D,2 F,2 E,4 | (D,4 G,4) | z4 G,3 F, | (D,2 B,2 A,4) | G,2 C3 B, C2 | %30
w: men per- *||* * di-|dit, _|fa- *|ctus _ _|fe- * * *|
w: ||||A- *|||
 D2 A,4 C2 | B,2 G,2 A,4 | E,2 G,2 F,4 | E,8 |] %34
w: * lix pro|mi- * *|* * se-|ris.|
w: |||men.|

